images/50420052.svg

<?xml version="1.0" encoding="UTF-8"?>
<svg xmlns="http://www.w3.org/2000/svg" xmlns:xlink="http://www.w3.org/1999/xlink" width="300pt" height="300pt" viewBox="0 0 300 300" version="1.1">
<defs>
<g>
<symbol overflow="visible" id="glyph0-0">
<path style="stroke:none;" d="M 0.546875 1.9375 L 0.546875 -7.75 L 6.046875 -7.75 L 6.046875 1.9375 Z M 1.171875 1.328125 L 5.4375 1.328125 L 5.4375 -7.140625 L 1.171875 -7.140625 Z M 1.171875 1.328125 "/>
</symbol>
<symbol overflow="visible" id="glyph0-1">
<path style="stroke:none;" d="M 1.078125 -8.015625 L 5.6875 -8.015625 L 5.6875 -7.109375 L 2.171875 -7.109375 L 2.171875 -4.75 L 5.34375 -4.75 L 5.34375 -3.828125 L 2.171875 -3.828125 L 2.171875 0 L 1.078125 0 Z M 1.078125 -8.015625 "/>
</symbol>
<symbol overflow="visible" id="glyph0-2">
<path style="stroke:none;" d="M 1.078125 -8.015625 L 2.546875 -8.015625 L 6.09375 -1.3125 L 6.09375 -8.015625 L 7.15625 -8.015625 L 7.15625 0 L 5.6875 0 L 2.125 -6.703125 L 2.125 0 L 1.078125 0 Z M 1.078125 -8.015625 "/>
</symbol>
<symbol overflow="visible" id="glyph0-3">
<path style="stroke:none;" d="M 1.078125 -8.015625 L 2.171875 -8.015625 L 2.171875 -4.734375 L 6.109375 -4.734375 L 6.109375 -8.015625 L 7.1875 -8.015625 L 7.1875 0 L 6.109375 0 L 6.109375 -3.8125 L 2.171875 -3.8125 L 2.171875 0 L 1.078125 0 Z M 1.078125 -8.015625 "/>
</symbol>
<symbol overflow="visible" id="glyph1-0">
<path style="stroke:none;" d="M 0.453125 1.59375 L 0.453125 -6.34375 L 4.953125 -6.34375 L 4.953125 1.59375 Z M 0.953125 1.09375 L 4.453125 1.09375 L 4.453125 -5.84375 L 0.953125 -5.84375 Z M 0.953125 1.09375 "/>
</symbol>
<symbol overflow="visible" id="glyph1-1">
<path style="stroke:none;" d="M 1.734375 -0.75 L 4.828125 -0.75 L 4.828125 0 L 0.65625 0 L 0.65625 -0.75 C 1 -1.09375 1.457031 -1.554688 2.03125 -2.140625 C 2.613281 -2.734375 2.984375 -3.113281 3.140625 -3.28125 C 3.421875 -3.601562 3.613281 -3.875 3.71875 -4.09375 C 3.832031 -4.320312 3.890625 -4.539062 3.890625 -4.75 C 3.890625 -5.101562 3.769531 -5.390625 3.53125 -5.609375 C 3.289062 -5.828125 2.972656 -5.9375 2.578125 -5.9375 C 2.296875 -5.9375 2 -5.882812 1.6875 -5.78125 C 1.382812 -5.6875 1.054688 -5.539062 0.703125 -5.34375 L 0.703125 -6.25 C 1.054688 -6.382812 1.390625 -6.488281 1.703125 -6.5625 C 2.015625 -6.644531 2.300781 -6.6875 2.5625 -6.6875 C 3.238281 -6.6875 3.78125 -6.515625 4.1875 -6.171875 C 4.59375 -5.828125 4.796875 -5.375 4.796875 -4.8125 C 4.796875 -4.539062 4.742188 -4.28125 4.640625 -4.03125 C 4.535156 -3.789062 4.351562 -3.507812 4.09375 -3.1875 C 4.019531 -3.101562 3.785156 -2.859375 3.390625 -2.453125 C 2.992188 -2.046875 2.441406 -1.476562 1.734375 -0.75 Z M 1.734375 -0.75 "/>
</symbol>
</g>
</defs>
<g id="surface21229">
<rect x="0" y="0" width="300" height="300" style="fill:rgb(100%,100%,100%);fill-opacity:1;stroke:none;"/>
<path style="fill:none;stroke-width:1.2;stroke-linecap:butt;stroke-linejoin:miter;stroke:rgb(20%,80%,80%);stroke-opacity:1;stroke-miterlimit:10;" d="M 264.75 198.269531 L 252.175781 195.304688 "/>
<path style="fill:none;stroke-width:1.2;stroke-linecap:butt;stroke-linejoin:miter;stroke:rgb(0%,0%,0%);stroke-opacity:1;stroke-miterlimit:10;" d="M 252.175781 195.304688 L 239.605469 192.339844 "/>
<path style=" stroke:none;fill-rule:nonzero;fill:rgb(100%,100%,100%);fill-opacity:1;" d="M 261.75 191.769531 L 268.75 191.769531 L 268.75 204.769531 L 261.75 204.769531 Z M 261.75 191.769531 "/>
<g style="fill:rgb(20%,80%,80%);fill-opacity:1;">
  <use xlink:href="#glyph0-1" x="261.75" y="201.670898"/>
</g>
<path style="fill:none;stroke-width:1.2;stroke-linecap:butt;stroke-linejoin:miter;stroke:rgb(0%,0%,0%);stroke-opacity:1;stroke-miterlimit:10;" d="M 239.605469 192.339844 L 221.898438 211.152344 "/>
<path style="fill:none;stroke-width:1.2;stroke-linecap:butt;stroke-linejoin:miter;stroke:rgb(0%,0%,0%);stroke-opacity:1;stroke-miterlimit:10;" d="M 233.40625 190.054688 L 219.242188 205.105469 "/>
<path style="fill:none;stroke-width:1.2;stroke-linecap:butt;stroke-linejoin:miter;stroke:rgb(0%,0%,0%);stroke-opacity:1;stroke-miterlimit:10;" d="M 232.164062 167.601562 L 239.605469 192.339844 "/>
<path style="fill:none;stroke-width:1.2;stroke-linecap:butt;stroke-linejoin:miter;stroke:rgb(0%,0%,0%);stroke-opacity:1;stroke-miterlimit:10;" d="M 221.898438 211.152344 L 196.753906 205.226562 "/>
<path style="fill:none;stroke-width:1.2;stroke-linecap:butt;stroke-linejoin:miter;stroke:rgb(0%,0%,0%);stroke-opacity:1;stroke-miterlimit:10;" d="M 196.753906 205.226562 L 189.316406 180.488281 "/>
<path style="fill:none;stroke-width:1.2;stroke-linecap:butt;stroke-linejoin:miter;stroke:rgb(0%,0%,0%);stroke-opacity:1;stroke-miterlimit:10;" d="M 201.832031 201.003906 L 195.878906 181.210938 "/>
<path style="fill:none;stroke-width:1.2;stroke-linecap:butt;stroke-linejoin:miter;stroke:rgb(0%,0%,0%);stroke-opacity:1;stroke-miterlimit:10;" d="M 189.316406 180.488281 L 207.019531 161.675781 "/>
<path style="fill:none;stroke-width:1.2;stroke-linecap:butt;stroke-linejoin:miter;stroke:rgb(0%,0%,0%);stroke-opacity:1;stroke-miterlimit:10;" d="M 189.316406 180.488281 L 164.171875 174.5625 "/>
<path style="fill:none;stroke-width:1.2;stroke-linecap:butt;stroke-linejoin:miter;stroke:rgb(0%,0%,0%);stroke-opacity:1;stroke-miterlimit:10;" d="M 207.019531 161.675781 L 232.164062 167.601562 "/>
<path style="fill:none;stroke-width:1.2;stroke-linecap:butt;stroke-linejoin:miter;stroke:rgb(0%,0%,0%);stroke-opacity:1;stroke-miterlimit:10;" d="M 208.140625 168.183594 L 228.257812 172.925781 "/>
<path style="fill:none;stroke-width:1.2;stroke-linecap:butt;stroke-linejoin:miter;stroke:rgb(0%,0%,0%);stroke-opacity:1;stroke-miterlimit:10;" d="M 164.171875 174.5625 L 154.382812 182.992188 "/>
<path style="fill:none;stroke-width:1.2;stroke-linecap:butt;stroke-linejoin:miter;stroke:rgb(0%,0%,100%);stroke-opacity:1;stroke-miterlimit:10;" d="M 154.382812 182.992188 L 144.597656 191.421875 "/>
<path style="fill:none;stroke-width:1.2;stroke-linecap:butt;stroke-linejoin:miter;stroke:rgb(0%,0%,0%);stroke-opacity:1;stroke-miterlimit:10;" d="M 154.183594 150.734375 L 164.171875 174.5625 "/>
<path style="fill:none;stroke-width:1.2;stroke-linecap:butt;stroke-linejoin:miter;stroke:rgb(0%,0%,0%);stroke-opacity:1;stroke-miterlimit:10;" d="M 149.578125 155.464844 L 157.566406 174.527344 "/>
<path style="fill:none;stroke-width:1.2;stroke-linecap:butt;stroke-linejoin:miter;stroke:rgb(0%,0%,100%);stroke-opacity:1;stroke-miterlimit:10;" d="M 144.597656 191.421875 L 133.554688 184.714844 "/>
<path style="fill:none;stroke-width:1.2;stroke-linecap:butt;stroke-linejoin:miter;stroke:rgb(0%,0%,0%);stroke-opacity:1;stroke-miterlimit:10;" d="M 133.554688 184.714844 L 122.511719 178.011719 "/>
<path style="fill:none;stroke-width:1.2;stroke-linecap:butt;stroke-linejoin:miter;stroke:rgb(0%,0%,100%);stroke-opacity:1;stroke-miterlimit:10;" d="M 145.542969 184.882812 L 136.710938 179.519531 "/>
<path style="fill:none;stroke-width:1.2;stroke-linecap:butt;stroke-linejoin:miter;stroke:rgb(0%,0%,0%);stroke-opacity:1;stroke-miterlimit:10;" d="M 136.710938 179.519531 L 127.875 174.15625 "/>
<path style=" stroke:none;fill-rule:nonzero;fill:rgb(100%,100%,100%);fill-opacity:1;" d="M 140.597656 184.921875 L 148.597656 184.921875 L 148.597656 197.921875 L 140.597656 197.921875 Z M 140.597656 184.921875 "/>
<g style="fill:rgb(0%,0%,100%);fill-opacity:1;">
  <use xlink:href="#glyph0-2" x="140.597656" y="194.823242"/>
</g>
<path style="fill:none;stroke-width:1.2;stroke-linecap:butt;stroke-linejoin:miter;stroke:rgb(0%,0%,0%);stroke-opacity:1;stroke-miterlimit:10;" d="M 122.511719 178.011719 L 125.476562 165.441406 "/>
<path style="fill:none;stroke-width:1.2;stroke-linecap:butt;stroke-linejoin:miter;stroke:rgb(0%,0%,100%);stroke-opacity:1;stroke-miterlimit:10;" d="M 125.476562 165.441406 L 128.441406 152.867188 "/>
<path style="fill:none;stroke-width:1.2;stroke-linecap:butt;stroke-linejoin:miter;stroke:rgb(0%,0%,100%);stroke-opacity:1;stroke-miterlimit:10;" d="M 128.441406 152.867188 L 120.011719 143.082031 "/>
<path style="fill:none;stroke-width:1.2;stroke-linecap:butt;stroke-linejoin:miter;stroke:rgb(0%,0%,0%);stroke-opacity:1;stroke-miterlimit:10;" d="M 120.011719 143.082031 L 111.582031 133.292969 "/>
<path style="fill:none;stroke-width:1.2;stroke-linecap:butt;stroke-linejoin:miter;stroke:rgb(0%,0%,100%);stroke-opacity:1;stroke-miterlimit:10;" d="M 128.441406 152.867188 L 141.3125 151.800781 "/>
<path style="fill:none;stroke-width:1.2;stroke-linecap:butt;stroke-linejoin:miter;stroke:rgb(0%,0%,0%);stroke-opacity:1;stroke-miterlimit:10;" d="M 141.3125 151.800781 L 154.183594 150.734375 "/>
<path style=" stroke:none;fill-rule:nonzero;fill:rgb(100%,100%,100%);fill-opacity:1;" d="M 124.441406 146.367188 L 132.441406 146.367188 L 132.441406 159.367188 L 124.441406 159.367188 Z M 124.441406 146.367188 "/>
<g style="fill:rgb(0%,0%,100%);fill-opacity:1;">
  <use xlink:href="#glyph0-2" x="124.441406" y="156.268555"/>
</g>
<path style="fill:none;stroke-width:1.2;stroke-linecap:butt;stroke-linejoin:miter;stroke:rgb(0%,0%,0%);stroke-opacity:1;stroke-miterlimit:10;" d="M 111.582031 133.292969 L 86.199219 138.105469 "/>
<path style="fill:none;stroke-width:1.2;stroke-linecap:butt;stroke-linejoin:miter;stroke:rgb(0%,0%,0%);stroke-opacity:1;stroke-miterlimit:10;" d="M 86.199219 138.105469 L 77.675781 162.496094 "/>
<path style="fill:none;stroke-width:1.2;stroke-linecap:butt;stroke-linejoin:miter;stroke:rgb(0%,0%,0%);stroke-opacity:1;stroke-miterlimit:10;" d="M 79.609375 138.539062 L 72.789062 158.050781 "/>
<path style="fill:none;stroke-width:1.2;stroke-linecap:butt;stroke-linejoin:miter;stroke:rgb(0%,0%,0%);stroke-opacity:1;stroke-miterlimit:10;" d="M 69.339844 118.53125 L 86.199219 138.105469 "/>
<path style="fill:none;stroke-width:1.2;stroke-linecap:butt;stroke-linejoin:miter;stroke:rgb(0%,0%,0%);stroke-opacity:1;stroke-miterlimit:10;" d="M 77.675781 162.496094 L 52.296875 167.308594 "/>
<path style="fill:none;stroke-width:1.2;stroke-linecap:butt;stroke-linejoin:miter;stroke:rgb(0%,0%,0%);stroke-opacity:1;stroke-miterlimit:10;" d="M 52.296875 167.308594 L 35.4375 147.734375 "/>
<path style="fill:none;stroke-width:1.2;stroke-linecap:butt;stroke-linejoin:miter;stroke:rgb(0%,0%,0%);stroke-opacity:1;stroke-miterlimit:10;" d="M 55.214844 161.382812 L 41.726562 145.722656 "/>
<path style="fill:none;stroke-width:1.2;stroke-linecap:butt;stroke-linejoin:miter;stroke:rgb(0%,0%,0%);stroke-opacity:1;stroke-miterlimit:10;" d="M 52.296875 167.308594 L 43.773438 191.695312 "/>
<path style="fill:none;stroke-width:1.2;stroke-linecap:butt;stroke-linejoin:miter;stroke:rgb(0%,0%,0%);stroke-opacity:1;stroke-miterlimit:10;" d="M 35.4375 147.734375 L 43.957031 123.34375 "/>
<path style="fill:none;stroke-width:1.2;stroke-linecap:butt;stroke-linejoin:miter;stroke:rgb(0%,0%,0%);stroke-opacity:1;stroke-miterlimit:10;" d="M 43.957031 123.34375 L 69.339844 118.53125 "/>
<path style="fill:none;stroke-width:1.2;stroke-linecap:butt;stroke-linejoin:miter;stroke:rgb(0%,0%,0%);stroke-opacity:1;stroke-miterlimit:10;" d="M 47.628906 128.835938 L 67.933594 124.984375 "/>
<path style="fill:none;stroke-width:1.2;stroke-linecap:butt;stroke-linejoin:miter;stroke:rgb(0%,0%,0%);stroke-opacity:1;stroke-miterlimit:10;" d="M 43.773438 191.695312 L 39.511719 203.890625 "/>
<path style="fill:none;stroke-width:1.2;stroke-linecap:butt;stroke-linejoin:miter;stroke:rgb(0%,0%,100%);stroke-opacity:1;stroke-miterlimit:10;" d="M 39.511719 203.890625 L 35.25 216.082031 "/>
<path style="fill:none;stroke-width:1.2;stroke-linecap:butt;stroke-linejoin:miter;stroke:rgb(0%,0%,0%);stroke-opacity:1;stroke-miterlimit:10;" d="M 37.183594 192.128906 L 33.773438 201.882812 "/>
<path style="fill:none;stroke-width:1.2;stroke-linecap:butt;stroke-linejoin:miter;stroke:rgb(0%,0%,100%);stroke-opacity:1;stroke-miterlimit:10;" d="M 33.773438 201.882812 L 30.363281 211.640625 "/>
<path style="fill:none;stroke-width:1.2;stroke-linecap:butt;stroke-linejoin:miter;stroke:rgb(0%,0%,0%);stroke-opacity:1;stroke-miterlimit:10;" d="M 48.660156 196.140625 L 45.25 205.894531 "/>
<path style="fill:none;stroke-width:1.2;stroke-linecap:butt;stroke-linejoin:miter;stroke:rgb(0%,0%,100%);stroke-opacity:1;stroke-miterlimit:10;" d="M 45.25 205.894531 L 41.839844 215.648438 "/>
<path style=" stroke:none;fill-rule:nonzero;fill:rgb(100%,100%,100%);fill-opacity:1;" d="M 27.25 209.582031 L 35.25 209.582031 L 35.25 222.582031 L 27.25 222.582031 Z M 27.25 209.582031 "/>
<g style="fill:rgb(0%,0%,100%);fill-opacity:1;">
  <use xlink:href="#glyph0-2" x="27.25" y="219.483398"/>
</g>
<path style="fill:none;stroke-width:1.2;stroke-linecap:butt;stroke-linejoin:miter;stroke:rgb(0%,0%,0%);stroke-opacity:1;stroke-miterlimit:10;" d="M 154.183594 150.734375 L 167.59375 128.652344 "/>
<path style="fill:none;stroke-width:1.2;stroke-linecap:butt;stroke-linejoin:miter;stroke:rgb(0%,0%,0%);stroke-opacity:1;stroke-miterlimit:10;" d="M 167.59375 128.652344 L 180.507812 128.9375 "/>
<path style="fill:none;stroke-width:1.2;stroke-linecap:butt;stroke-linejoin:miter;stroke:rgb(0%,0%,100%);stroke-opacity:1;stroke-miterlimit:10;" d="M 180.507812 128.9375 L 193.417969 129.222656 "/>
<path style="fill:none;stroke-width:1.2;stroke-linecap:butt;stroke-linejoin:miter;stroke:rgb(0%,0%,0%);stroke-opacity:1;stroke-miterlimit:10;" d="M 170.308594 122.632812 L 180.640625 122.859375 "/>
<path style="fill:none;stroke-width:1.2;stroke-linecap:butt;stroke-linejoin:miter;stroke:rgb(0%,0%,100%);stroke-opacity:1;stroke-miterlimit:10;" d="M 180.640625 122.859375 L 190.972656 123.085938 "/>
<path style="fill:none;stroke-width:1.2;stroke-linecap:butt;stroke-linejoin:miter;stroke:rgb(0%,0%,0%);stroke-opacity:1;stroke-miterlimit:10;" d="M 155.171875 106 L 167.59375 128.652344 "/>
<path style="fill:none;stroke-width:1.2;stroke-linecap:butt;stroke-linejoin:miter;stroke:rgb(0%,0%,100%);stroke-opacity:1;stroke-miterlimit:10;" d="M 193.417969 129.222656 L 200.125 118.179688 "/>
<path style="fill:none;stroke-width:1.2;stroke-linecap:butt;stroke-linejoin:miter;stroke:rgb(0%,0%,0%);stroke-opacity:1;stroke-miterlimit:10;" d="M 200.125 118.179688 L 206.828125 107.136719 "/>
<path style=" stroke:none;fill-rule:nonzero;fill:rgb(100%,100%,100%);fill-opacity:1;" d="M 189.417969 122.722656 L 197.417969 122.722656 L 197.417969 135.722656 L 189.417969 135.722656 Z M 189.417969 122.722656 "/>
<g style="fill:rgb(0%,0%,100%);fill-opacity:1;">
  <use xlink:href="#glyph0-2" x="189.417969" y="132.624023"/>
</g>
<path style="fill:none;stroke-width:1.2;stroke-linecap:butt;stroke-linejoin:miter;stroke:rgb(0%,0%,0%);stroke-opacity:1;stroke-miterlimit:10;" d="M 206.828125 107.136719 L 200.617188 95.8125 "/>
<path style="fill:none;stroke-width:1.2;stroke-linecap:butt;stroke-linejoin:miter;stroke:rgb(0%,0%,100%);stroke-opacity:1;stroke-miterlimit:10;" d="M 200.617188 95.8125 L 194.40625 84.488281 "/>
<path style="fill:none;stroke-width:1.2;stroke-linecap:butt;stroke-linejoin:miter;stroke:rgb(0%,0%,0%);stroke-opacity:1;stroke-miterlimit:10;" d="M 200.253906 107.796875 L 195.285156 98.734375 "/>
<path style="fill:none;stroke-width:1.2;stroke-linecap:butt;stroke-linejoin:miter;stroke:rgb(0%,0%,100%);stroke-opacity:1;stroke-miterlimit:10;" d="M 195.285156 98.734375 L 190.316406 89.675781 "/>
<path style="fill:none;stroke-width:1.2;stroke-linecap:butt;stroke-linejoin:miter;stroke:rgb(0%,0%,0%);stroke-opacity:1;stroke-miterlimit:10;" d="M 206.828125 107.136719 L 219.742188 107.421875 "/>
<path style="fill:none;stroke-width:1.2;stroke-linecap:butt;stroke-linejoin:miter;stroke:rgb(0%,0%,100%);stroke-opacity:1;stroke-miterlimit:10;" d="M 219.742188 107.421875 L 232.65625 107.707031 "/>
<path style="fill:none;stroke-width:1.2;stroke-linecap:butt;stroke-linejoin:miter;stroke:rgb(0%,0%,100%);stroke-opacity:1;stroke-miterlimit:10;" d="M 194.40625 84.488281 L 181.492188 84.203125 "/>
<path style="fill:none;stroke-width:1.2;stroke-linecap:butt;stroke-linejoin:miter;stroke:rgb(0%,0%,0%);stroke-opacity:1;stroke-miterlimit:10;" d="M 181.492188 84.203125 L 168.578125 83.917969 "/>
<path style=" stroke:none;fill-rule:nonzero;fill:rgb(100%,100%,100%);fill-opacity:1;" d="M 190.40625 77.988281 L 198.40625 77.988281 L 198.40625 90.988281 L 190.40625 90.988281 Z M 190.40625 77.988281 "/>
<g style="fill:rgb(0%,0%,100%);fill-opacity:1;">
  <use xlink:href="#glyph0-2" x="190.40625" y="87.889648"/>
</g>
<path style="fill:none;stroke-width:1.2;stroke-linecap:butt;stroke-linejoin:miter;stroke:rgb(0%,0%,0%);stroke-opacity:1;stroke-miterlimit:10;" d="M 168.578125 83.917969 L 155.171875 106 "/>
<path style="fill:none;stroke-width:1.2;stroke-linecap:butt;stroke-linejoin:miter;stroke:rgb(0%,0%,0%);stroke-opacity:1;stroke-miterlimit:10;" d="M 172.433594 89.28125 L 161.707031 106.945312 "/>
<path style=" stroke:none;fill-rule:nonzero;fill:rgb(100%,100%,100%);fill-opacity:1;" d="M 221.65625 99.207031 L 243.65625 99.207031 L 243.65625 116.207031 L 221.65625 116.207031 Z M 221.65625 99.207031 "/>
<g style="fill:rgb(0%,0%,100%);fill-opacity:1;">
  <use xlink:href="#glyph0-2" x="221.65625" y="109.108398"/>
  <use xlink:href="#glyph0-3" x="229.639648" y="109.108398"/>
</g>
<g style="fill:rgb(0%,0%,100%);fill-opacity:1;">
  <use xlink:href="#glyph1-1" x="237.664062" y="113.991211"/>
</g>
</g>
</svg>

<svg xmlns="http://www.w3.org/2000/svg" xmlns:xlink="http://www.w3.org/1999/xlink" width="300pt" height="300pt" viewBox="0 0 300 300"><defs><symbol overflow="visible"><path d="M.547 1.938V-7.75h5.5v9.688zm.625-.61h4.266v-8.47H1.171zm0 0"/></symbol><symbol overflow="visible" id="a"><path d="M1.078-8.016h4.61v.907H2.171v2.36h3.172v.922H2.172V0H1.078zm0 0"/></symbol><symbol overflow="visible" id="b"><path d="M1.078-8.016h1.47l3.546 6.704v-6.704h1.062V0H5.688L2.124-6.703V0H1.078zm0 0"/></symbol><symbol overflow="visible" id="c"><path d="M1.078-8.016h1.094v3.282H6.11v-3.282h1.077V0H6.11v-3.813H2.17V0H1.078zm0 0"/></symbol><symbol overflow="visible"><path d="M.453 1.594v-7.938h4.5v7.938zm.5-.5h3.5v-6.938h-3.5zm0 0"/></symbol><symbol overflow="visible" id="d"><path d="M1.734-.75h3.094V0H.656v-.75c.344-.344.8-.805 1.375-1.39.583-.594.954-.973 1.11-1.14.282-.322.473-.595.58-.814.112-.226.17-.445.17-.656 0-.352-.12-.64-.36-.86-.24-.218-.557-.327-.952-.327-.28 0-.578.054-.89.156-.305.093-.633.24-.985.436v-.906c.352-.133.688-.238 1-.313.313-.082.598-.125.86-.125.675 0 1.218.172 1.624.516.407.344.61.797.61 1.36 0 .273-.055.53-.156.78-.105.243-.288.524-.546.845-.074.085-.31.328-.703.734-.398.406-.95.976-1.656 1.703zm0 0"/></symbol></defs><g><path fill="#fff" d="M0 0h300v300H0z"/><path d="M264.75 198.27l-12.574-2.965" stroke-width="1.2" stroke="#3cc" stroke-miterlimit="10" fill="none"/><path d="M252.176 195.305l-12.57-2.965" stroke-width="1.2" stroke="#000" stroke-miterlimit="10" fill="none"/><path d="M261.75 191.77h7v13h-7zm0 0" fill="#fff"/><use xlink:href="#a" x="261.75" y="201.671" fill="#3cc"/><path d="M239.605 192.34l-17.707 18.812M233.406 190.055l-14.164 15.05M232.164 167.602l7.44 24.738M221.898 211.152l-25.144-5.925M196.754 205.227l-7.438-24.74M201.832 201.004l-5.953-19.793M189.316 180.488l17.704-18.812M189.316 180.488l-25.144-5.925M207.02 161.676l25.144 5.926M208.14 168.184l20.118 4.742M164.172 174.563l-9.79 8.43" stroke-width="1.2" stroke="#000" stroke-miterlimit="10" fill="none"/><path d="M154.383 182.992l-9.785 8.43" stroke-width="1.2" stroke="#00f" stroke-miterlimit="10" fill="none"/><path d="M154.184 150.734l9.988 23.828M149.578 155.465l7.988 19.062" stroke-width="1.2" stroke="#000" stroke-miterlimit="10" fill="none"/><path d="M144.598 191.422l-11.043-6.707" stroke-width="1.2" stroke="#00f" stroke-miterlimit="10" fill="none"/><path d="M133.555 184.715l-11.043-6.703" stroke-width="1.2" stroke="#000" stroke-miterlimit="10" fill="none"/><path d="M145.543 184.883l-8.832-5.363" stroke-width="1.2" stroke="#00f" stroke-miterlimit="10" fill="none"/><path d="M136.71 179.52l-8.835-5.364" stroke-width="1.2" stroke="#000" stroke-miterlimit="10" fill="none"/><path d="M140.598 184.922h8v13h-8zm0 0" fill="#fff"/><use xlink:href="#b" x="140.598" y="194.823" fill="#00f"/><path d="M122.512 178.012l2.965-12.57" stroke-width="1.2" stroke="#000" stroke-miterlimit="10" fill="none"/><path d="M125.477 165.44l2.964-12.573M128.44 152.867l-8.428-9.785" stroke-width="1.2" stroke="#00f" stroke-miterlimit="10" fill="none"/><path d="M120.012 143.082l-8.43-9.79" stroke-width="1.2" stroke="#000" stroke-miterlimit="10" fill="none"/><path d="M128.44 152.867l12.873-1.066" stroke-width="1.2" stroke="#00f" stroke-miterlimit="10" fill="none"/><path d="M141.313 151.8l12.87-1.066" stroke-width="1.2" stroke="#000" stroke-miterlimit="10" fill="none"/><path d="M124.44 146.367h8v13h-8zm0 0" fill="#fff"/><use xlink:href="#b" x="124.441" y="156.269" fill="#00f"/><path d="M111.582 133.293L86.2 138.105M86.2 138.105l-8.524 24.39M79.61 138.54l-6.82 19.51M69.34 118.53l16.86 19.575M77.676 162.496l-25.38 4.813M52.297 167.31l-16.86-19.576M55.215 161.383l-13.488-15.66M52.297 167.31l-8.524 24.385M35.438 147.734l8.52-24.39M43.957 123.344l25.383-4.813M47.63 128.836l20.304-3.852M43.773 191.695l-4.26 12.196" stroke-width="1.2" stroke="#000" stroke-miterlimit="10" fill="none"/><path d="M39.512 203.89l-4.262 12.192" stroke-width="1.2" stroke="#00f" stroke-miterlimit="10" fill="none"/><path d="M37.184 192.13l-3.41 9.753" stroke-width="1.2" stroke="#000" stroke-miterlimit="10" fill="none"/><path d="M33.773 201.883l-3.41 9.758" stroke-width="1.2" stroke="#00f" stroke-miterlimit="10" fill="none"/><path d="M48.66 196.14l-3.41 9.755" stroke-width="1.2" stroke="#000" stroke-miterlimit="10" fill="none"/><path d="M45.25 205.895l-3.41 9.753" stroke-width="1.2" stroke="#00f" stroke-miterlimit="10" fill="none"/><path d="M27.25 209.582h8v13h-8zm0 0" fill="#fff"/><use xlink:href="#b" x="27.25" y="219.483" fill="#00f"/><path d="M154.184 150.734l13.41-22.082M167.594 128.652l12.914.286" stroke-width="1.2" stroke="#000" stroke-miterlimit="10" fill="none"/><path d="M180.508 128.938l12.91.285" stroke-width="1.2" stroke="#00f" stroke-miterlimit="10" fill="none"/><path d="M170.31 122.633l10.33.226" stroke-width="1.2" stroke="#000" stroke-miterlimit="10" fill="none"/><path d="M180.64 122.86l10.333.226" stroke-width="1.2" stroke="#00f" stroke-miterlimit="10" fill="none"/><path d="M155.172 106l12.422 22.652" stroke-width="1.2" stroke="#000" stroke-miterlimit="10" fill="none"/><path d="M193.418 129.223l6.707-11.043" stroke-width="1.2" stroke="#00f" stroke-miterlimit="10" fill="none"/><path d="M200.125 118.18l6.703-11.043" stroke-width="1.2" stroke="#000" stroke-miterlimit="10" fill="none"/><path d="M189.418 122.723h8v13h-8zm0 0" fill="#fff"/><use xlink:href="#b" x="189.418" y="132.624" fill="#00f"/><path d="M206.828 107.137l-6.21-11.325" stroke-width="1.2" stroke="#000" stroke-miterlimit="10" fill="none"/><path d="M200.617 95.813l-6.21-11.325" stroke-width="1.2" stroke="#00f" stroke-miterlimit="10" fill="none"/><path d="M200.254 107.797l-4.97-9.063" stroke-width="1.2" stroke="#000" stroke-miterlimit="10" fill="none"/><path d="M195.285 98.734l-4.97-9.058" stroke-width="1.2" stroke="#00f" stroke-miterlimit="10" fill="none"/><path d="M206.828 107.137l12.914.285" stroke-width="1.2" stroke="#000" stroke-miterlimit="10" fill="none"/><path d="M219.742 107.422l12.914.285M194.406 84.488l-12.914-.285" stroke-width="1.2" stroke="#00f" stroke-miterlimit="10" fill="none"/><path d="M181.492 84.203l-12.914-.285" stroke-width="1.2" stroke="#000" stroke-miterlimit="10" fill="none"/><path d="M190.406 77.988h8v13h-8zm0 0" fill="#fff"/><use xlink:href="#b" x="190.406" y="87.89" fill="#00f"/><path d="M168.578 83.918L155.172 106M172.434 89.28l-10.727 17.665" stroke-width="1.2" stroke="#000" stroke-miterlimit="10" fill="none"/><path d="M221.656 99.207h22v17h-22zm0 0" fill="#fff"/><g fill="#00f"><use xlink:href="#b" x="221.656" y="109.108"/><use xlink:href="#c" x="229.64" y="109.108"/></g><use xlink:href="#d" x="237.664" y="113.991" fill="#00f"/></g></svg>
